app/assets/images/icons/active/point-up.svg

<svg width="32" height="232" viewBox="0 0 32 232" xmlns="http://www.w3.org/2000/svg" xmlns:sketch="http://www.bohemiancoding.com/sketch/ns"><title>point-up</title><g sketch:type="MSPage" fill="none"><path d="M16 212s3.822 11 12.5 11h-25c7.986 0 12.5-11 12.5-11zm0 0" fill="#15C98D" sketch:type="MSShapeGroup"/><path d="M16 172s3.822 11 12.5 11h-25c7.986 0 12.5-11 12.5-11zm0 0" fill="#1D4F8D" sketch:type="MSShapeGroup"/><path d="M16 132s3.822 11 12.5 11h-25c7.986 0 12.5-11 12.5-11zm0 0" fill="#fff" sketch:type="MSShapeGroup"/><path d="M16 92s3.822 11 12.5 11h-25c7.986 0 12.5-11 12.5-11zm0 0" fill="#E5EDF5" sketch:type="MSShapeGroup"/><path d="M16 52s3.822 11 12.5 11h-25c7.986 0 12.5-11 12.5-11zm0 0" fill="#67737B" sketch:type="MSShapeGroup"/><path d="M16 12s3.822 11 12.5 11h-25c7.986 0 12.5-11 12.5-11zm0 0" fill="#3A434E" sketch:type="MSShapeGroup"/></g></svg>

<?xml version="1.0" encoding="UTF-8" standalone="no"?>
<svg width="32px" height="232px" viewBox="0 0 32 232" version="1.1" xmlns="http://www.w3.org/2000/svg" xmlns:xlink="http://www.w3.org/1999/xlink" xmlns:sketch="http://www.bohemiancoding.com/sketch/ns">
    <title>point-up</title>
    <description>Created with Sketch (http://www.bohemiancoding.com/sketch)</description>
    <defs></defs>
    <g id="Graphics" stroke="none" stroke-width="1" fill="none" fill-rule="evenodd" sketch:type="MSPage">
        <path d="M16,212 C16,212 19.822,223 28.5,223 L3.5,223 C11.486,223 16,212 16,212 Z M16,212" id="point-up--green" fill="#15C98D" sketch:type="MSShapeGroup"></path>
        <path d="M16,172 C16,172 19.822,183 28.5,183 L3.5,183 C11.486,183 16,172 16,172 Z M16,172" id="point-up--lp-blue" fill="#1D4F8D" sketch:type="MSShapeGroup"></path>
        <path d="M16,132 C16,132 19.822,143 28.5,143 L3.5,143 C11.486,143 16,132 16,132 Z M16,132" id="point-up--white" fill="#FFFFFF" sketch:type="MSShapeGroup"></path>
        <path d="M16,92 C16,92 19.822,103 28.5,103 L3.5,103 C11.486,103 16,92 16,92 Z M16,92" id="point-up--subdued-grey" fill="#E5EDF5" sketch:type="MSShapeGroup"></path>
        <path d="M16,52 C16,52 19.822,63 28.5,63 L3.5,63 C11.486,63 16,52 16,52 Z M16,52" id="point-up--body-grey" fill="#67737B" sketch:type="MSShapeGroup"></path>
        <path d="M16,12 C16,12 19.822,23 28.5,23 L3.5,23 C11.486,23 16,12 16,12 Z M16,12" id="point-up--title-grey" fill="#3A434E" sketch:type="MSShapeGroup"></path>
    </g>
</svg>
